X: 14368
T: Galope Des Pionniers
R: reel
M: 4/4
K: Gmajor
z2D2|S G3G G2B2|ddd2 dBGB|dBGB d2e2|ddd2 d2cd|
e2AB cBce|dBGA B2 (3BcB|A2FA d2F2|G4:|
B2d2|gggg ggg2|f4 e4|d3B BdBG|B2DD D2c2|
B3A ABAB|A2DD D2c2|B3g gagf|g2G2 B2d2|
gggg ggg2|f4 e4|d3B BdBG|B2DD D2c2|
B3B A2c2|B4 A4|G3D EDB,D|G3D EFGA||
B4 zBBB|A2G2 F2G2|c3c cdcB|c2D2 EFGA|
c4 zccc|B2A2 G2B2|d3d d2d2|d2D2 EFGA|
B4 zBBB|B4 zBBB|A2G2 F2G2|e3e e2e2|
d3d d2E2|D2FA d2F2|G3G GFGA|G2DD E2F2||
GGG FFF G2|FFF EEE F2|EEDD DB,DE|D2DD E2F2|
G2GG G2G2|G4 F2G2|A3E E2E2|E2E2 D2E2|
A4 G4|F4 E4|D2dd d2d2|d2DD EFGA|B4 z2AB|
c4 z2F2|[M:6/4] G2DD EDB,D G2D2||

